;FLAVOR:Marlin
;TIME:1108
;Filament used: 1.08099m
;Layer height: 0.13
;MINX:-24.917
;MINY:-5.267
;MINZ:0.3
;MAXX:24.933
;MAXY:5.269
;MAXZ:26.82
;TARGET_MACHINE.NAME:Unknown
;Exported with Cura-DuetRRF v1.2.11 plugin by Thomas Kriechbaumer
;Generated with Cura_SteamEngine 5.8.0
M104 S205
M105
M109 S205
M82 ;absolute extrusion mode
G28 ; home


;Prime the extruder
G92 E0
G1 F200 E3
G92 E0
M83 ;relative extrusion mode
G1 F3600 E-1
;LAYER_COUNT:206
;LAYER:0
;note -- min layer time used
M106 S255
;MESH:pi 3mm_deformed_tet.stl
G0 F9600 X-7.358 Y2.025 Z0.3
;TYPE:WALL-OUTER
G1 F3600 E1
G1 F392.4 X-7.47 Y1.588 E0.03871
G1 X-8.04 Y-.112 E0.15386
G1 F414.1 X-7.946 Y-1.237 E0.0918
G1 F480.4 X-7.796 Y-2.646 E0.09932
G1 F533.6 X-7.358 Y-3.389 E0.05443
G1 X-7.35 Y-2.572 E0.05156
G1 F480.4 X-7.38 Y-1.208 E0.09563
G1 F414.1 X-7.397 Y-.15 E0.08605
G1 F392.4 X-7.358 Y2.025 E0.18667
G0 F9600 X-7.372 Y1.225
G1 F3600 E-1
;MESH:NONMESH
G0 F600 X-7.372 Y1.225 Z0.43
G0 F9600 X-7.495 Y1.136
G0 X-7.701 Y-1.143
;TIME_ELAPSED:3.518455
;LAYER:1
;note -- min layer time used
;TYPE:WALL-INNER
;MESH:pi 3mm_deformed_tet.stl
G1 F3600 E1
G1 F572.7 X-7.818 Y-1.59 E0.01396
G1 F498.7 X-7.806 Y-2.349 E0.02634
G1 F518.9 X-7.81 Y-2.729 E0.01267
G1 X-7.818 Y-3.456 E0.02425
G1 X-8.414 Y-2.444 E0.03917
G1 F498.7 X-8.483 Y-1.624 E0.02855
G1 F572.7 X-8.643 Y-1.19 E0.01397
G1 F711.4 X-8.77 Y-.119 E0.02623
G1 F711.4 X-8.148 Y2.284 E0.03924
G1 F711.4 X-7.62 Y3.05 E0.02263
G1 X-7.65 Y1.508 E0.03751
G1 X-7.701 Y-1.143 E0.06449
G1 F3600 E-1
G0 F12000 X-8.103 Y-1.137
G0 X-7.535 Y2.527
G0 X-7.21 Y2.517
;TYPE:WALL-OUTER
G1 F3600 E1
G1 F711.4 X-7.306 Y-2.754 E0.12822
G1 F711.4 X-7.31 Y-3.525 E0.01875
G1 X-7.317 Y-5.079 E0.0378
G1 X-8.149 Y-3.892 E0.03526
G1 X-8.905 Y-2.61 E0.0362
G1 F711.4 X-9.204 Y-0.07 E0.04043
G1 F711.4 X-9.161 Y0.053 E0.00317
G1 F711.4 X-8.541 Y2.462 E0.03932
G1 X-7.152 Y4.477 E0.03869
G1 F711.4 X-7.204 Y2.728 E0.04256
G1 X-7.21 Y2.517 E0.00513
G0 F12000 X-7.224 Y1.718
G1 F3600 E-1
G0 F12000 X-8.006 Y1.453
G0 X-8.174 Y-1.076
;TYPE:SKIN
G1 F3600 E1
G1 F520.6 X-8.221 Y-.155 E0.03065
G0 F12000 X-8.022 Y-.103
G1 F3600 E-1
;MESH:NONMESH
G0 F600 X-8.022 Y-.103 Z0.56
G0 F12000 X-8.084 Y-.103
G0 X-7.961 Y1.776
G0 X-7.615 Y2.522
;TIME_ELAPSED:7.071895
;LAYER:2
;note -- min layer time used
;TYPE:WALL-INNER
;MESH:pi 3mm_deformed_tet.stl
G1 F3600 E1
G1 F3765.7 X-7.659 Y0.297 E0.05413
G1 X-7.656 Y-.127 E0.01031
G1 X-7.711 Y-2.748 E0.06376
G1 X-7.72 Y-4.553 E0.0439
G1 X-7.72 Y-4.645 E0.00224
G1 F1460.6 X-8.234 Y-4.645 E0.0125
G1 X-8.455 Y-4.33 E0.00936
G1 X-9.036 Y-3.337 E0.02798
G1 X-9.444 Y-2.499 E0.02267
G1 X-9.527 Y-2.044 E0.01125
G1 X-9.731 Y-0.07 E0.04827
G1 X-9.632 Y0.565 E0.01563
G1 X-9.209 Y2.438 E0.0467
G1 X-8.855 Y3.104 E0.01834
G1 X-7.988 Y4.432 E0.03857
G1 X-7.559 Y4.428 E0.01043
G1 F3765.7 X-7.574 Y3.916 E0.01246
G1 X-7.615 Y2.522 E0.03392
G1 F3600 E-1
G0 F12000 X-7.19 Y2.514
;TYPE:WALL-OUTER
G1 F3600 E1
G1 F1992.6 X-7.234 Y0.301 E0.05383
G1 X-7.231 Y-.135 E0.0106
G1 X-7.286 Y-2.75 E0.06361
G1 X-7.297 Y-5.07 E0.05643
G1 F840 X-7.367 Y-5.07 E0.0017
G1 X-8.454 Y-5.07 E0.02644
G1 X-8.813 Y-4.56 E0.01517
G1 X-9.411 Y-3.537 E0.02882
G1 X-9.852 Y-2.633 E0.02446
G1 X-9.948 Y-2.104 E0.01308
G1 X-10.159 Y-0.059 E0.05
G1 X-10.05 Y0.645 E0.01733
G1 X-9.611 Y2.588 E0.04845
G1 X-9.22 Y3.32 E0.02018
G1 X-8.217 Y4.86 E0.0447
G1 X-7.122 Y4.848 E0.02663
G1 F1992.6 X-7.13 Y4.559 E0.00703
G1 X-7.19 Y2.514 E0.04976
G0 F12000 X-7.205 Y1.714
G1 F3600 E-1
G0 F12000 X-8.033 Y1.728
G0 X-8.041 Y2.529
;TYPE:SKIN
;BRIDGE
M107
G1 F3600 E1
G1 F1106 X-8.02 Y3.271 E0.01805
G1 X-8.01 Y3.611 E0.00827
G1 X-8.481 Y2.889 E0.02097
G1 X-8.803 Y2.288 E0.01658
G1 X-9.207 Y0.497 E0.04465
G1 X-9.301 Y-0.075 E0.0141
G1 X-9.07 Y-2.282 E0.05397
G1 X-8.942 Y-2.547 E0.00716
G1 X-8.796 Y-2.85 E0.00818
G1 X-8.661 Y-3.129 E0.00754
G1 X-8.143 Y-4.011 E0.02488
G1 X-8.143 Y-3.948 E0.00153
G1 X-8.137 Y-2.742 E0.02933
G1 X-8.082 Y-.126 E0.06364
G1 X-8.085 Y0.293 E0.01019
G1 X-8.041 Y2.529 E0.05439
G1 F3600 E-1
G0 F12000 X-8.6 Y-2.15
G1 F3600 E1
G1 F1106 X-8.628 Y-1.463 E0.02051
G1 X-8.657 Y-.776 E0.02364
G1 X-8.686 Y-0.088 E0.0268
G1 X-8.648 Y0.378 E0.01827
G1 F3600 E-1
;MESH:NONMESH
G0 F600 X-8.648 Y0.378 Z0.69
G0 F12000 X-7.9 Y3.971
G0 X-7.54 Y4.42
;TIME_ELAPSED:10.415946
;LAYER:3
M106 S255
;TYPE:WALL-INNER
;MESH:pi 3mm_deformed_tet.stl
G1 F3600 E1
G1 F4800 X-7.599 Y2.516 E0.04633
G1 X-7.635 Y0.436 E0.0506
G1 X-7.636 Y-.156 E0.0144
G1 X-7.687 Y-2.743 E0.06293
G1 X-7.699 Y-4.637 E0.04607
G1 F1680 X-8.791 Y-4.637 E0.02656
G1 X-9.274 Y-4.637 E0.01175
G1 F1200 X-10.304 Y-2.52 E0.03722
G1 F1680 X-10.579 Y-.985 E0.03793
G1 X-10.671 Y-0.089 E0.02191
G1 X-10.444 Y1.386 E0.0363
G1 X-10.223 Y2.373 E0.0246
G1 X-9.84 Y3.254 E0.02336
G1 X-9.209 Y4.437 E0.03261
G1 X-8.529 Y4.43 E0.01654
G1 X-7.54 Y4.42 E0.02406
G1 F3600 E-1
G0 F12000 X-7.102 Y4.84
;TYPE:WALL-OUTER
G1 F3600 E1
G1 F2400 X-7.174 Y2.509 E0.05672
G1 X-7.21 Y0.436 E0.05043
G1 X-7.211 Y-.164 E0.01459
G1 X-7.262 Y-2.746 E0.06281
G1 X-7.277 Y-5.062 E0.05633
G1 F840 X-8.504 Y-5.062 E0.02984
G1 X-9.539 Y-5.062 E0.02517
G1 F1200 X-10.712 Y-2.653 E0.04236
G1 F840 X-11 Y-1.045 E0.03973
G1 X-11.1 Y-0.079 E0.02362
G1 X-10.862 Y1.465 E0.038
G1 X-10.629 Y2.506 E0.02595
G1 X-10.222 Y3.439 E0.02476
G1 X-9.462 Y4.864 E0.03928
G1 X-8.252 Y4.852 E0.02943
G1 X-7.102 Y4.84 E0.02797
G0 F12000 X-7.126 Y4.041
G0 X-7.98 Y3.996
;TYPE:SKIN
;BRIDGE
M107
G1 F1200 X-8.808 Y4.004 E0.02014
G1 X-8.953 Y4.005 E0.00353
G1 X-9.457 Y3.062 E0.02601
G1 X-9.813 Y2.242 E0.02174
G1 X-10.022 Y1.302 E0.02342
G1 X-10.241 Y-0.094 E0.03437
G1 X-10.153 Y-.928 E0.0204
G1 X-10.018 Y-1.679 E0.01856
G1 X-9.891 Y-2.381 E0.01735
G1 X-9.003 Y-4.207 E0.04938
G1 X-8.123 Y-4.207 E0.0214
G1 X-8.114 Y-3.069 E0.02768
G1 X-8.473 Y-2.451 E0.01738
G1 X-8.749 Y-.127 E0.05692
G1 X-8.127 Y2.274 E0.06032
G1 X-8.027 Y2.426 E0.00443
G1 X-7.98 Y3.996 E0.0382
G0 F12000 X-8.865 Y3.692
G1 F1200 X-8.688 Y3.778 E0.00479
G0 F12000 X-8.224 Y3.337
G1 F1200 X-9.326 Y2.8 E0.02982
G0 F12000 X-9.641 Y1.979
G1 F1200 X-8.245 Y2.659 E0.03777
G0 F12000 X-8.461 Y1.887
G1 F1200 X-9.807 Y1.232 E0.03641
G0 F12000 X-9.919 Y0.51
G1 F1200 X-8.657 Y1.124 E0.03413
G0 F12000 X-8.853 Y0.361
G1 F1200 X-10.004 Y-.199 E0.03113
G0 F12000 X-9.937 Y-.834
G1 F1200 X-8.947 Y-.352 E0.02678
G0 F12000 X-8.871 Y-.982
G1 F1200 X-9.83 Y-1.449 E0.02594
G0 F12000 X-9.72 Y-2.063
G1 F1200 X-8.795 Y-1.613 E0.02502
G0 F12000 X-8.72 Y-2.243
G1 F1200 X-9.519 Y-2.632 E0.02161
G0 F12000 X-9.256 Y-3.172
G1 F1200 X-8.526 Y-2.816 E0.01975
G0 F12000 X-8.342 Y-3.394
G1 F1200 X-8.994 Y-3.711 E0.01763
G0 F12000 X-8.914 Y-3.672
G1 F3600 E-1
G0 F12000 X-7.456 Y-.113
G0 X7.539 Y-0.037
;TYPE:WALL-OUTER
M106 S255
G1 F3600 E1
G1 F656.2 X7.503 Y0.025 E0.00223
G1 X7.431 Y0.025 E0.00224
G1 X7.395 Y-0.037 E0.00223
G1 X7.431 Y-0.099 E0.00223
G1 X7.503 Y-0.099 E0.00224
G1 X7.539 Y-0.037 E0.00223
G1 F3600 E-1
;MESH:NONMESH
G0 F600 X7.539 Y-0.037 Z0.82
G0 F12000 X8.021 Y-0.062
;TIME_ELAPSED:14.735184
;LAYER:4
;TYPE:WALL-INNER
;MESH:pi 3mm_deformed_tet.stl
G1 F3600 E1
G1 F1135.1 X7.979 Y-.134 E0.003
G1 X7.896 Y-.134 E0.00299
G1 X7.855 Y-0.062 E0.00298
G1 X7.897 Y0.01 E0.003
G1 X7.98 Y0.01 E0.00299
G1 X8.021 Y-0.062 E0.00298
G1 F3600 E-1
G0 F12000 X7.406 Y-0.016
;TYPE:WALL-OUTER
G1 F3600 E1
G1 F840 X7.398 Y0.551 E0.01379
G1 X7.37 Y2.616 E0.05023
G1 X7.369 Y3.358 E0.01805
G1 X7.554 Y3.119 E0.00735
G1 X7.884 Y2.52 E0.01663
G1 X8.197 Y1.224 E0.03243
G1 X8.481 Y-0.053 E0.03182
G1 X8.253 Y-1.285 E0.03047
G1 X7.957 Y-2.591 E0.03257
G1 X7.409 Y-3.481 E0.02542
G1 X7.415 Y-2.659 E0.01999
G1 X7.408 Y-.7 E0.04765
G1 X7.406 Y-0.016 E0.01664
G0 F12000 X7.396 Y0.784
G1 F3600 E-1
G0 F12000 X7.72 Y0.789
G0 X7.627 Y1.787
G0 X-7.389 Y2.064
G0 X-7.999 Y1.57
;TYPE:FILL
G1 F3600 E1
G1 F9600 X-8.223 Y1.806 E0.00791
G1 X-8.688 Y2.562 E0.02159
G1 F3600 E-1
G0 F12000 X-7.903 Y4.049
G0 X-7.521 Y4.411
;TYPE:WALL-INNER
G1 F3600 E1
G1 F4800 X-7.579 Y2.517 E0.04609
G1 X-7.615 Y0.564 E0.04751
G1 X-7.615 Y-.124 E0.01673
G1 X-7.667 Y-2.735 E0.06352
G1 X-7.679 Y-4.628 E0.04604
G1 X-9.285 Y-4.625 E0.03906
G1 X-9.781 Y-4.631 E0.01206
G1 X-10.114 Y-4.635 E0.0081
G1 X-10.77 Y-3.352 E0.03505
G1 F1680 X-11.164 Y-2.541 E0.02193
G1 F1200 X-11.604 Y-0.084 E0.03946
G1 X-11.242 Y2.323 E0.03848
G1 F1680 X-10.536 Y3.941 E0.04294
G1 X-10.27 Y4.437 E0.01369
G1 X-9.722 Y4.432 E0.01333
G1 X-7.521 Y4.411 E0.05353
G1 F3600 E-1
G0 F12000 X-7.082 Y4.832
;TYPE:WALL-OUTER
G1 F3600 E1
G1 F2400 X-7.154 Y2.509 E0.05653
G1 X-7.19 Y0.564 E0.04731
G1 X-7.19 Y-.132 E0.01693
G1 X-7.242 Y-2.738 E0.06339
G1 X-7.257 Y-5.053 E0.05631
G1 X-9.28 Y-5.05 E0.0492
G1 F840 X-9.575 Y-5.054 E0.00718
G1 X-10.372 Y-5.064 E0.01939
G1 X-11.153 Y-3.537 E0.04171
G1 X-11.572 Y-2.673 E0.02335
G1 F1200 X-12.035 Y-0.092 E0.04145
G1 X-11.653 Y2.442 E0.04051
G1 F840 X-10.919 Y4.126 E0.04468
G1 X-10.523 Y4.864 E0.02037
G1 X-9.496 Y4.854 E0.02498
G1 X-7.082 Y4.832 E0.05871
G0 F12000 X-7.106 Y4.033
G1 F3600 E-1
G0 F12000 X-7.932 Y4.058
G0 X-8.249 Y3.99
;TYPE:SKIN
G1 F3600 E1
G1 F2400 X-9.95 Y4.005 E0.04137
G1 X-10.041 Y4.006 E0.00221
G1 X-10.826 Y2.197 E0.04796
G1 X-11.171 Y-0.076 E0.05592
G1 X-11.068 Y-.648 E0.01414
G1 X-10.751 Y-2.405 E0.04342
G1 X-10.388 Y-3.158 E0.02033
G1 X-9.855 Y-4.204 E0.02855
G1 X-9.292 Y-4.195 E0.01369
G1 X-8.503 Y-4.198 E0.01919
G1 X-9.017 Y-3.327 E0.0246
G1 X-9.421 Y-2.486 E0.02269
G1 X-9.506 Y-2.034 E0.01119
G1 X-9.707 Y-0.076 E0.04787
G1 X-9.603 Y0.595 E0.01651
G1 X-9.187 Y2.434 E0.04586
G1 X-8.835 Y3.091 E0.01813
G1 X-8.249 Y3.99 E0.0261
G1 F3600 E-1
G0 F12000 X-9.588 Y3.776
G1 F3600 E1
G1 F2400 X-10.132 Y3.232 E0.01871
G0 F12000 X-9.192 Y2.899
G1 F2400 X-10.725 Y1.367 E0.05271
G0 F12000 X-10.611 Y2.117
G1 F2400 X-8.958 Y3.77 E0.05686
G1 X-8.879 Y3.849
G1 F3600 E-1
G0 F12000 X-9.536 Y1.919
G1 F3600 E1
G1 F2400 X-10.839 Y0.617 E0.0448
G0 F12000 X-10.935 Y-.117
G1 F2400 X-9.721 Y1.097 E0.04176
G0 F12000 X-9.871 Y0.311
G1 F2400 X-10.838 Y-.655 E0.03324
G0 F12000 X-10.741 Y-1.195
G1 F2400 X-9.902 Y-.356 E0.02886
G0 F12000 X-9.844 Y-.934
G1 F2400 X-10.643 Y-1.734 E0.0275
G0 F12000 X-10.546 Y-2.273
G1 F2400 X-9.785 Y-1.512 E0.02618
G0 F12000 X-9.723 Y-2.086
G1 F2400 X-10.352 Y-2.715 E0.02163
G0 F12000 X-10.143 Y-3.143
G1 F2400 X-9.612 Y-2.612 E0.01826
G0 F12000 X-9.405 Y-3.041
G1 F2400 X-9.928 Y-3.565 E0.01801
G0 F12000 X-9.704 Y-3.976
G1 F2400 X-9.195 Y-3.468 E0.01749
G0 F12000 X-8.958 Y-3.867
G1 F2400 X-9.064 Y-3.973 E0.00365
G0 F12000 X-9.065 Y-3.876
G1 F3600 E-1
;MESH:NONMESH
G0 F600 X-9.065 Y-3.876 Z0.95
G0 F12000 X-7.489 Y-2.734
G0 X7.646 Y-2.66
G0 X7.815 Y-2.653
;TIME_ELAPSED:20.085847
;LAYER:5
;TYPE:WALL-INNER
;MESH:pi 3mm_deformed_tet.stl
G1 F3600 E1
G1 F4800 X7.807 Y-0.01 E0.06428
G1 X7.772 Y2.616 E0.06387
G1 F1680 X7.771 Y2.788 E0.00418
G1 X7.768 Y3.59 E0.01951
G1 X8.444 Y2.365 E0.03403
G1 F1200 X9.023 Y-0.064 E0.03948
G1 X8.482 Y-2.453 E0.03872
G1 F1680 X7.809 Y-3.545 E0.0312
G1 F4800 X7.814 Y-2.875 E0.0163
G1 X7.815 Y-2.653 E0.0054
G1 F3600 E-1
G0 F12000 X7.39 Y-2.655
;TYPE:WALL-OUTER
G1 F3600 E1
G1 F2400 X7.382 Y-0.016 E0.06418
G1 X7.347 Y2.614 E0.06397
G1 F840 X7.345 Y3.435 E0.01997
G1 X7.341 Y4.8 E0.0332
G1 X8.163 Y3.753 E0.03237
G1 X8.844 Y2.52 E0.03426
G1 F1200 X9.459 Y-0.062 E0.04196
G1 X8.881 Y-2.616 E0.0414
G1 F840 X7.949 Y-4.128 E0.0432
G1 X7.415 Y-5.025 E0.02539
G1 X7.376 Y-5.024 E0.00095
G1 X7.385 Y-3.569 E0.03539
G1 X7.39 Y-2.655 E0.02223
G0 F12000 X7.388 Y-1.855
G1 F3600 E-1
G0 F12000 X8.215 Y-1.852
G0 X8.504 Y-0.067
;TYPE:SKIN
;BRIDGE
M107
G1 F3600 E1
G1 F1200 X8.455 Y0.019 E0.00424
G1 X8.356 Y0.019 E0.00424
G1 X8.306 Y-0.067 E0.00426
G1 X8.355 Y-.153 E0.00424
G1 X8.454 Y-.153 E0.00424
G1 X8.504 Y-0.067 E0.00426
G0 F12000 X8.56 Y-0.013
G1 F3600 E-1
G0 F12000 X7.603 Y1.844
G0 X-7.369 Y2.124
G0 X-7.982 Y1.624
;TYPE:FILL
M106 S255
G1 F3600 E1
G1 F9600 X-8.165 Y1.806 E0.00628
G1 X-8.767 Y2.709 E0.0264
G1 X-9.13 Y3.612 E0.02367
G1 X-9.147 Y3.695 E0.00206
G1 F3600 E-1
G0 F12000 X-7.884 Y4.043
G0 X-7.501 Y4.407
;TYPE:WALL-INNER
G1 F3600 E1
G1 F4800 X-7.559 Y2.514 E0.04606
G1 X-7.595 Y0.688 E0.04442
G1 X-7.592 Y-.132 E0.01994
G1 X-7.647 Y-2.73 E0.0632
G1 X-7.662 Y-4.619 E0.04594
G1 X-9.11 Y-4.617 E0.03522
G1 X-10.619 Y-4.638 E0.0367
G1 X-10.941 Y-4.643 E0.00783
G1 X-11.701 Y-3.15 E0.04075
G1 X-11.941 Y-2.519 E0.01642
G1 F1200 X-12.255 Y-0.091 E0.0387
G1 X-11.924 Y2.719 E0.04473
G1 F1680 X-11.442 Y4.139 E0.03647
G1 X-11.31 Y4.444 E0.00808
G1 X-10.782 Y4.439 E0.01284
G1 X-7.501 Y4.407 E0.0798
G1 F3600 E-1
G0 F12000 X-7.062 Y4.828
;TYPE:WALL-OUTER
G1 F3600 E1
G1 F2400 X-7.134 Y2.505 E0.05653
G1 X-7.17 Y0.69 E0.04415
G1 X-7.167 Y-.14 E0.02019
G1 X-7.222 Y-2.734 E0.0631
G1 X-7.24 Y-5.045 E0.05621
G1 X-9.104 Y-5.042 E0.04534
G1 F840 X-10.404 Y-5.06 E0.03162
G1 X-11.199 Y-5.071 E0.01934
G1 X-12.091 Y-3.322 E0.04775
G1 X-12.355 Y-2.622 E0.0182
G1 F1200 X-12.684 Y-0.094 E0.0403
G1 X-12.434 Y2.038 E0.03394
G1 F840 X-12.399 Y2.532 E0.01204
G1 X-12.334 Y2.833 E0.00749
G1 X-11.846 Y4.274 E0.037
G1 X-11.588 Y4.872 E0.01584
G1 X-10.554 Y4.862 E0.02515
G1 X-7.062 Y4.828 E0.08493
G0 F12000 X-7.086 Y4.029
G1 F3600 E-1
G0 F12000 X-7.913 Y4.054
G0 X-10.906 Y2.174
;TYPE:SKIN
G1 F3600 E1
G1 F1687.5 X-10.611 Y2.528 E0.01594
G1 F2437.9 X-10.186 Y3.545 E0.02639
G1 F2347.8 X-10.705 Y3.552 E0.0129
G1 F2389.4 X-11.016 Y2.684 E0.02252
G1 F2126 X-11.002 Y2.491 E0.00531
G1 F1514.7 X-10.906 Y2.174 E0.01276
G1 F3600 E-1
G0 F12000 X-10.341 Y-3.648
G1 F3600 E1
G1 F1621.6 X-10.786 Y-2.756 E0.03588
G1 F1521.1 X-10.931 Y-2.265 E0.01965
G1 F1510.5 X-11.129 Y-.981 E0.05021
G1 F1538.5 X-11.231 Y-0.081 E0.03437
G1 F1445.8 X-11.015 Y1.535 E0.06582
G1 F1331.7 X-10.906 Y2.174 E0.02841
G1 F3600 E-1
G0 F12000 X-9.417 Y3.998
G1 F3600 E1
G1 F2400 X-10.998 Y4.013 E0.03845
G1 X-11.031 Y4.013 E0.0008
G1 X-11.15 Y3.665 E0.00895
G1 X-11.507 Y2.618 E0.0269
G1 X-11.821 Y-0.086 E0.06621
G1 X-11.519 Y-2.413 E0.05707
G1 X-11.306 Y-2.981 E0.01475
G1 X-10.678 Y-4.212 E0.03361
G1 X-9.465 Y-4.192 E0.02951
G1 X-10.272 Y-2.533 E0.04487
G1 X-10.558 Y-.985 E0.03829
G1 X-10.644 Y-0.073 E0.02228
G1 X-10.419 Y1.406 E0.03639
G1 X-10.201 Y2.369 E0.02401
G1 X-9.822 Y3.231 E0.0229
G1 X-9.417 Y3.998 E0.0211
G0 F12000 X-9.419 Y3.677
G1 F3600 E-1
;MESH:NONMESH
G0 F600 X-9.419 Y3.677 Z1.08
G0 F12000 X-7.38 Y2.514
G0 X7.629 Y-0.018
G0 X8.144 Y-2.381
G0 X7.796 Y-2.65
;TIME_ELAPSED:26.091677
;LAYER:6
;TYPE:WALL-INNER
;MESH:pi 3mm_deformed_tet.stl
G1 F3600 E1
G1 F4800 X7.787 Y-0.009 E0.06423
G1 X7.748 Y2.618 E0.0639
G1 X7.755 Y2.972 E0.00861
G1 X7.75 Y4.323 E0.03286
G1 X7.749 Y4.494 E0.00416
G1 F1680 X8.14 Y4.497 E0.00951
G1 X8.415 Y4.146 E0.01084
G1 X9.08 Y2.94 E0.0335
G1 X9.339 Y2.398 E0.01461
G1 X9.734 Y0.502 E0.0471
G1 X9.816 Y-0.062 E0.01386
G1 F4800 X9.724 Y-.632 E0.01404
G1 F1680 X9.35 Y-2.511 E0.0466
G1 X9.093 Y-3.044 E0.01439
G1 X8.167 Y-4.603 E0.0441
G1 X7.783 Y-4.598 E0.00934
G1 F4800 X7.784 Y-4.456 E0.00345
G1 X7.796 Y-2.65 E0.04393
G1 F3600 E-1
G0 F12000 X8.194 Y-2.649
G0 X7.654 Y-4.726
G0 X7.356 Y-5.017
;TYPE:WALL-OUTER
G1 F3600 E1
G1 F2400 X7.371 Y-2.651 E0.05755
G1 X7.362 Y-0.016 E0.06409
G1 X7.323 Y2.627 E0.06429
G1 X7.33 Y2.97 E0.00834
G1 X7.32 Y4.871 E0.04624
G1 X7.32 Y4.915 E0.00107
G1 F840 X8.346 Y4.924 E0.02495
G1 X8.77 Y4.381 E0.01676
G1 X9.449 Y3.153 E0.03413
G1 X9.745 Y2.535 E0.01667
G1 X10.153 Y0.576 E0.04867
G1 X10.247 Y-0.065 E0.01576
G1 X10.141 Y-.715 E0.01602
G1 X9.757 Y-2.647 E0.04791
G1 X9.467 Y-3.245 E0.01616
G1 X8.406 Y-5.032 E0.05055
G1 X7.45 Y-5.018 E0.02325
G1 X7.356 Y-5.017 E0.00229
G0 F12000 X7.361 Y-4.217
G1 F3600 E-1
G0 F12000 X8.112 Y-4.058
G0 X8.18 Y3.683
;TYPE:SKIN
;BRIDGE
M107
G1 F3600 E1
G1 F1200 X8.182 Y2.973 E0.01727
G1 X8.173 Y2.624 E0.00849
G1 X8.214 Y0.00 E0.06383
G1 X8.221 Y-2.647 E0.06438
G1 X8.214 Y-3.684 E0.02522
G1 X8.713 Y-2.845 E0.02374
G1 X8.94 Y-2.372 E0.01276
G1 X9.301 Y-.558 E0.04498
G1 X9.384 Y-0.057 E0.01235
G1 X9.314 Y0.424 E0.01182
G1 X8.929 Y2.258 E0.04558
G1 X8.702 Y2.731 E0.01276
G1 X8.18 Y3.683 E0.02641
G1 F3600 E-1
G0 F12000 X8.895 Y-0.026
G1 F3600 E1
G1 F1200 X8.85 Y0.053 E0.00359
G1 X8.759 Y0.053 E0.00359
